third_party/noto/noto_2/emoji_u1f683.svg

<svg enable-background="new 0 0 128 128" version="1.1" viewBox="0 0 128 128" xmlns="http://www.w3.org/2000/svg"><circle cx="23" cy="115.03" r="8.97" fill="#455A64"/><path d="m25.2 116.4c-0.52 0.64-1.3 1.07-2.2 1.07-0.89 0-1.68-0.42-2.2-1.07h-3.58c0.62 2.63 2.96 4.59 5.78 4.59s5.16-1.96 5.78-4.59h-3.58z" fill="#607D8B"/><circle cx="46.74" cy="115.03" r="8.97" fill="#455A64"/><path d="m48.94 116.4c-0.52 0.64-1.3 1.07-2.2 1.07s-1.68-0.42-2.2-1.07h-3.58c0.62 2.63 2.96 4.59 5.78 4.59s5.16-1.96 5.78-4.59h-3.58z" fill="#607D8B"/><polygon points="46.61 117.43 23.47 117.43 20.51 109.76 49.21 109.76" fill="#455A64"/><circle cx="82.14" cy="115.03" r="8.97" fill="#455A64"/><path d="m84.34 116.4c-0.52 0.64-1.3 1.07-2.2 1.07s-1.68-0.42-2.2-1.07h-3.58c0.62 2.63 2.96 4.59 5.78 4.59s5.16-1.96 5.78-4.59h-3.58z" fill="#607D8B"/><circle cx="105.88" cy="115.03" r="8.97" fill="#455A64"/><path d="m108.07 116.4c-0.52 0.64-1.3 1.07-2.2 1.07s-1.68-0.42-2.2-1.07h-3.58c0.62 2.63 2.96 4.59 5.78 4.59s5.16-1.96 5.78-4.59h-3.58z" fill="#607D8B"/><polygon points="105.74 117.43 82.61 117.43 79.65 109.76 108.34 109.76" fill="#455A64"/><rect x="6.32" y="43.96" width="115.36" height="64.9" fill="#FFECB3"/><rect x="6.32" y="91.88" width="115.36" height="15.96" fill="#FFCA28"/><path d="m6.32 42.42h115.36c-1.27-5.61-6.27-8.33-12.26-8.33h-90.84c-5.99-0.01-10.99 2.72-12.26 8.33z" fill="#00796B"/><rect x="6.32" y="42.38" width="115.36" height="3" fill="#004D40"/><path d="m122.79 114.2h-117.58c-0.67 0-1.21-0.54-1.21-1.21v-3.94c0-0.67 0.54-1.21 1.21-1.21h117.57c0.67 0 1.21 0.54 1.21 1.21v3.94c0.01 0.66-0.53 1.21-1.2 1.21z" fill="#82AEC0"/><rect x="6.32" y="95.83" width="115.36" height="6" fill="#E2A610"/><rect x="6.32" y="89.83" width="115.36" height="6" fill="#4CA854"/><path d="m25.33 80.97h-12.53c-0.55 0-1-0.45-1-1v-15.03c0-0.55 0.45-1 1-1h12.54c0.55 0 1 0.45 1 1v15.03c0 0.56-0.45 1-1.01 1z" fill="#BAE2FD"/><path d="m12.29 65.92v13.07c0 0.49 0.36 0.89 0.81 0.89h11.93c0.45 0 0.81-0.4 0.81-0.89v-13.07c0-0.49-0.36-0.89-0.81-0.89h-11.93c-0.44 0-0.81 0.4-0.81 0.89zm13.05 16.15h-12.55c-1.1 0-2-0.98-2-2.19v-14.84c0-1.21 0.89-2.19 1.99-2.19h12.55c1.1 0 1.99 0.98 1.99 2.19v14.84c0.01 1.21-0.88 2.19-1.98 2.19z" fill="#37474F"/><path d="m47.8 80.97h-12.54c-0.55 0-1-0.45-1-1v-15.03c0-0.55 0.45-1 1-1h12.54c0.55 0 1 0.45 1 1v15.03c0 0.56-0.44 1-1 1z" fill="#BAE2FD"/><path d="m34.76 65.92v13.07c0 0.49 0.36 0.89 0.81 0.89h11.93c0.45 0 0.81-0.4 0.81-0.89v-13.07c0-0.49-0.36-0.89-0.81-0.89h-11.93c-0.45 0-0.81 0.4-0.81 0.89zm13.05 16.15h-12.55c-1.1 0-2-0.98-2-2.19v-14.84c0-1.21 0.89-2.19 1.99-2.19h12.55c1.1 0 1.99 0.98 1.99 2.19v14.84c0.01 1.21-0.88 2.19-1.98 2.19z" fill="#37474F"/><path d="m34.76 71.17v-0.55c0-0.31 0.25-0.56 0.56-0.56h12.42c0.31 0 0.56 0.25 0.56 0.56v0.55h1v-1.64c0-0.31-0.25-0.56-0.56-0.56h-14.42c-0.31 0-0.56 0.25-0.56 0.56v1.64h1z" fill="#37474F"/><path d="m70.27 80.97h-12.54c-0.55 0-1-0.45-1-1v-15.03c0-0.55 0.45-1 1-1h12.54c0.55 0 1 0.45 1 1v15.03c0 0.56-0.45 1-1 1z" fill="#BAE2FD"/><path d="m57.23 65.92v13.07c0 0.49 0.36 0.89 0.81 0.89h11.93c0.45 0 0.81-0.4 0.81-0.89v-13.07c0-0.49-0.36-0.89-0.81-0.89h-11.93c-0.45 0-0.81 0.4-0.81 0.89zm13.04 16.15h-12.54c-1.1 0-2-0.98-2-2.19v-14.84c0-1.21 0.89-2.19 1.99-2.19h12.55c1.1 0 1.99 0.98 1.99 2.19v14.84c0.01 1.21-0.88 2.19-1.99 2.19z" fill="#37474F"/><path d="m57.23 71.17v-0.55c0-0.31 0.25-0.56 0.56-0.56h12.42c0.31 0 0.56 0.25 0.56 0.56v0.55h1v-1.64c0-0.31-0.25-0.56-0.56-0.56h-14.42c-0.31 0-0.56 0.25-0.56 0.56v1.64h1z" fill="#37474F"/><path d="m92.74 80.97h-12.54c-0.55 0-1-0.45-1-1v-15.03c0-0.55 0.45-1 1-1h12.54c0.55 0 1 0.45 1 1v15.03c0 0.56-0.45 1-1 1z" fill="#BAE2FD"/><path d="m79.7 65.92v13.07c0 0.49 0.36 0.89 0.81 0.89h11.93c0.45 0 0.81-0.4 0.81-0.89v-13.07c0-0.49-0.36-0.89-0.81-0.89h-11.93c-0.45 0-0.81 0.4-0.81 0.89zm13.04 16.15h-12.54c-1.1 0-2-0.98-2-2.19v-14.84c0-1.21 0.89-2.19 1.99-2.19h12.55c1.1 0 1.99 0.98 1.99 2.19v14.84c0.01 1.21-0.89 2.19-1.99 2.19z" fill="#37474F"/><path d="m115.2 80.97h-12.54c-0.55 0-1-0.45-1-1v-15.03c0-0.55 0.45-1 1-1h12.54c0.55 0 1 0.45 1 1v15.03c0.01 0.56-0.44 1-1 1z" fill="#BAE2FD"/><path d="m102.16 65.92v13.07c0 0.49 0.36 0.89 0.81 0.89h11.93c0.45 0 0.81-0.4 0.81-0.89v-13.07c0-0.49-0.36-0.89-0.81-0.89h-11.93c-0.44 0-0.81 0.4-0.81 0.89zm13.05 16.15h-12.55c-1.1 0-2-0.98-2-2.19v-14.84c0-1.21 0.89-2.19 1.99-2.19h12.55c1.1 0 1.99 0.98 1.99 2.19v14.84c0.01 1.21-0.88 2.19-1.98 2.19z" fill="#37474F"/><path d="m79.69 71.17v-0.55c0-0.31 0.25-0.56 0.56-0.56h12.42c0.31 0 0.56 0.25 0.56 0.56v0.55h1v-1.64c0-0.31-0.25-0.56-0.56-0.56h-14.41c-0.31 0-0.56 0.25-0.56 0.56v1.64h0.99z" fill="#37474F"/><path d="m102.16 71.17v-0.55c0-0.31 0.25-0.56 0.56-0.56h12.42c0.31 0 0.56 0.25 0.56 0.56v0.55h1v-1.64c0-0.31-0.25-0.56-0.56-0.56h-14.41c-0.31 0-0.56 0.25-0.56 0.56v1.64h0.99z" fill="#37474F"/><path d="m12.29 71.17v-0.55c0-0.31 0.25-0.56 0.56-0.56h12.42c0.31 0 0.56 0.25 0.56 0.56v0.55h1v-1.64c0-0.31-0.25-0.56-0.56-0.56h-14.41c-0.31 0-0.56 0.25-0.56 0.56v1.64h0.99z" fill="#37474F"/></svg>

<?xml version="1.0" encoding="utf-8"?>
<!-- Generator: Adobe Illustrator 25.2.3, SVG Export Plug-In . SVG Version: 6.00 Build 0)  -->
<svg version="1.1" id="Layer_2" xmlns="http://www.w3.org/2000/svg" xmlns:xlink="http://www.w3.org/1999/xlink" x="0px" y="0px"
	 viewBox="0 0 128 128" style="enable-background:new 0 0 128 128;" xml:space="preserve">
<g>
	<circle style="fill:#455A64;" cx="23" cy="115.03" r="8.97"/>
	<path style="fill:#607D8B;" d="M25.2,116.4c-0.52,0.64-1.3,1.07-2.2,1.07c-0.89,0-1.68-0.42-2.2-1.07h-3.58
		c0.62,2.63,2.96,4.59,5.78,4.59s5.16-1.96,5.78-4.59H25.2z"/>
	<circle style="fill:#455A64;" cx="46.74" cy="115.03" r="8.97"/>
	<path style="fill:#607D8B;" d="M48.94,116.4c-0.52,0.64-1.3,1.07-2.2,1.07s-1.68-0.42-2.2-1.07h-3.58
		c0.62,2.63,2.96,4.59,5.78,4.59s5.16-1.96,5.78-4.59H48.94z"/>
	<polygon style="fill:#455A64;" points="46.61,117.43 23.47,117.43 20.51,109.76 49.21,109.76 	"/>
	<circle style="fill:#455A64;" cx="82.14" cy="115.03" r="8.97"/>
	<path style="fill:#607D8B;" d="M84.34,116.4c-0.52,0.64-1.3,1.07-2.2,1.07s-1.68-0.42-2.2-1.07h-3.58
		c0.62,2.63,2.96,4.59,5.78,4.59s5.16-1.96,5.78-4.59H84.34z"/>
	<circle style="fill:#455A64;" cx="105.88" cy="115.03" r="8.97"/>
	<path style="fill:#607D8B;" d="M108.07,116.4c-0.52,0.64-1.3,1.07-2.2,1.07s-1.68-0.42-2.2-1.07h-3.58
		c0.62,2.63,2.96,4.59,5.78,4.59s5.16-1.96,5.78-4.59H108.07z"/>
	<polygon style="fill:#455A64;" points="105.74,117.43 82.61,117.43 79.65,109.76 108.34,109.76 	"/>
	<rect x="6.32" y="43.96" style="fill:#FFECB3;" width="115.36" height="64.9"/>
	<rect x="6.32" y="91.88" style="fill:#FFCA28;" width="115.36" height="15.96"/>
	<path style="fill:#00796B;" d="M6.32,42.42h115.36c-1.27-5.61-6.27-8.33-12.26-8.33H18.58C12.59,34.08,7.59,36.81,6.32,42.42z"/>
	<rect x="6.32" y="42.38" style="fill:#004D40;" width="115.36" height="3"/>
	<path style="fill:#82AEC0;" d="M122.79,114.2H5.21c-0.67,0-1.21-0.54-1.21-1.21v-3.94c0-0.67,0.54-1.21,1.21-1.21h117.57
		c0.67,0,1.21,0.54,1.21,1.21v3.94C124,113.65,123.46,114.2,122.79,114.2z"/>
	<rect x="6.32" y="95.83" style="fill:#E2A610;" width="115.36" height="6"/>
	<rect x="6.32" y="89.83" style="fill:#4CA854;" width="115.36" height="6"/>
</g>
<g>
	<g>
		<g>
			<path style="fill:#BAE2FD;" d="M25.33,80.97H12.8c-0.55,0-1-0.45-1-1V64.94c0-0.55,0.45-1,1-1h12.54c0.55,0,1,0.45,1,1v15.03
				C26.34,80.53,25.89,80.97,25.33,80.97z"/>
		</g>
		<path style="fill:#37474F;" d="M12.29,65.92l0,13.07c0,0.49,0.36,0.89,0.81,0.89l11.93,0c0.45,0,0.81-0.4,0.81-0.89l0-13.07
			c0-0.49-0.36-0.89-0.81-0.89l-11.93,0C12.66,65.03,12.29,65.43,12.29,65.92z M25.34,82.07H12.79c-1.1,0-2-0.98-2-2.19V65.04
			c0-1.21,0.89-2.19,1.99-2.19h12.55c1.1,0,1.99,0.98,1.99,2.19v14.84C27.33,81.09,26.44,82.07,25.34,82.07z"/>
	</g>
	<g>
		<g>
			<path style="fill:#BAE2FD;" d="M47.8,80.97H35.26c-0.55,0-1-0.45-1-1V64.94c0-0.55,0.45-1,1-1H47.8c0.55,0,1,0.45,1,1v15.03
				C48.8,80.53,48.36,80.97,47.8,80.97z"/>
		</g>
		<path style="fill:#37474F;" d="M34.76,65.92l0,13.07c0,0.49,0.36,0.89,0.81,0.89l11.93,0c0.45,0,0.81-0.4,0.81-0.89l0-13.07
			c0-0.49-0.36-0.89-0.81-0.89l-11.93,0C35.12,65.03,34.76,65.43,34.76,65.92z M47.81,82.07H35.26c-1.1,0-2-0.98-2-2.19V65.04
			c0-1.21,0.89-2.19,1.99-2.19h12.55c1.1,0,1.99,0.98,1.99,2.19v14.84C49.8,81.09,48.91,82.07,47.81,82.07z"/>
		<path style="fill:#37474F;" d="M34.76,71.17v-0.55c0-0.31,0.25-0.56,0.56-0.56h12.42c0.31,0,0.56,0.25,0.56,0.56v0.55h1v-1.64
			c0-0.31-0.25-0.56-0.56-0.56H34.32c-0.31,0-0.56,0.25-0.56,0.56v1.64H34.76z"/>
	</g>
	<g>
		<g>
			<path style="fill:#BAE2FD;" d="M70.27,80.97H57.73c-0.55,0-1-0.45-1-1V64.94c0-0.55,0.45-1,1-1h12.54c0.55,0,1,0.45,1,1v15.03
				C71.27,80.53,70.82,80.97,70.27,80.97z"/>
		</g>
		<path style="fill:#37474F;" d="M57.23,65.92l0,13.07c0,0.49,0.36,0.89,0.81,0.89l11.93,0c0.45,0,0.81-0.4,0.81-0.89l0-13.07
			c0-0.49-0.36-0.89-0.81-0.89l-11.93,0C57.59,65.03,57.23,65.43,57.23,65.92z M70.27,82.07H57.73c-1.1,0-2-0.98-2-2.19V65.04
			c0-1.21,0.89-2.19,1.99-2.19h12.55c1.1,0,1.99,0.98,1.99,2.19v14.84C72.27,81.09,71.38,82.07,70.27,82.07z"/>
		<path style="fill:#37474F;" d="M57.23,71.17v-0.55c0-0.31,0.25-0.56,0.56-0.56h12.42c0.31,0,0.56,0.25,0.56,0.56v0.55h1v-1.64
			c0-0.31-0.25-0.56-0.56-0.56H56.79c-0.31,0-0.56,0.25-0.56,0.56v1.64H57.23z"/>
	</g>
	<g>
		<g>
			<path style="fill:#BAE2FD;" d="M92.74,80.97H80.2c-0.55,0-1-0.45-1-1V64.94c0-0.55,0.45-1,1-1h12.54c0.55,0,1,0.45,1,1v15.03
				C93.74,80.53,93.29,80.97,92.74,80.97z"/>
		</g>
		<path style="fill:#37474F;" d="M79.7,65.92l0,13.07c0,0.49,0.36,0.89,0.81,0.89l11.93,0c0.45,0,0.81-0.4,0.81-0.89l0-13.07
			c0-0.49-0.36-0.89-0.81-0.89l-11.93,0C80.06,65.03,79.7,65.43,79.7,65.92z M92.74,82.07H80.2c-1.1,0-2-0.98-2-2.19V65.04
			c0-1.21,0.89-2.19,1.99-2.19h12.55c1.1,0,1.99,0.98,1.99,2.19v14.84C94.74,81.09,93.84,82.07,92.74,82.07z"/>
	</g>
	<g>
		<g>
			<path style="fill:#BAE2FD;" d="M115.2,80.97h-12.54c-0.55,0-1-0.45-1-1V64.94c0-0.55,0.45-1,1-1h12.54c0.55,0,1,0.45,1,1v15.03
				C116.21,80.53,115.76,80.97,115.2,80.97z"/>
		</g>
		<path style="fill:#37474F;" d="M102.16,65.92l0,13.07c0,0.49,0.36,0.89,0.81,0.89l11.93,0c0.45,0,0.81-0.4,0.81-0.89l0-13.07
			c0-0.49-0.36-0.89-0.81-0.89l-11.93,0C102.53,65.03,102.16,65.43,102.16,65.92z M115.21,82.07h-12.55c-1.1,0-2-0.98-2-2.19V65.04
			c0-1.21,0.89-2.19,1.99-2.19h12.55c1.1,0,1.99,0.98,1.99,2.19v14.84C117.2,81.09,116.31,82.07,115.21,82.07z"/>
	</g>
	<path style="fill:#37474F;" d="M79.69,71.17v-0.55c0-0.31,0.25-0.56,0.56-0.56h12.42c0.31,0,0.56,0.25,0.56,0.56v0.55h1v-1.64
		c0-0.31-0.25-0.56-0.56-0.56H79.26c-0.31,0-0.56,0.25-0.56,0.56v1.64H79.69z"/>
	<path style="fill:#37474F;" d="M102.16,71.17v-0.55c0-0.31,0.25-0.56,0.56-0.56h12.42c0.31,0,0.56,0.25,0.56,0.56v0.55h1v-1.64
		c0-0.31-0.25-0.56-0.56-0.56h-14.41c-0.31,0-0.56,0.25-0.56,0.56v1.64H102.16z"/>
	<path style="fill:#37474F;" d="M12.29,71.17v-0.55c0-0.31,0.25-0.56,0.56-0.56h12.42c0.31,0,0.56,0.25,0.56,0.56v0.55h1v-1.64
		c0-0.31-0.25-0.56-0.56-0.56H11.86c-0.31,0-0.56,0.25-0.56,0.56v1.64H12.29z"/>
</g>
</svg>
